assets/skin-mi-wbc/images/pause.svg

<?xml version="1.0" encoding="utf-8"?>
<!-- Generator: Adobe Illustrator 21.0.0, SVG Export Plug-In . SVG Version: 6.00 Build 0)  -->
<svg version="1.1" id="Layer_1" xmlns="http://www.w3.org/2000/svg" xmlns:xlink="http://www.w3.org/1999/xlink" x="0px" y="0px"
	 viewBox="0 0 32 32" style="enable-background:new 0 0 32 32;" xml:space="preserve">
<style type="text/css">
	.st0{fill:#FFFFFF;}
</style>
<g id="Rectangle_2_copy">
	<g>
		<path class="st0" d="M11.3,5.4H8.9c-1.3,0-2.4,1.1-2.4,2.4v16.5c0,1.3,1.1,2.4,2.4,2.4h2.4c1.3,0,2.4-1.1,2.4-2.4V7.7
			C13.6,6.4,12.6,5.4,11.3,5.4z M11.3,24.3H8.9V7.7h2.4V24.3z"/>
	</g>
</g>
<g id="Rectangle_2_copy_2">
	<g>
		<path class="st0" d="M23.1,5.4h-2.4c-1.3,0-2.4,1.1-2.4,2.4v16.5c0,1.3,1.1,2.4,2.4,2.4h2.4c1.3,0,2.4-1.1,2.4-2.4V7.7
			C25.4,6.4,24.4,5.4,23.1,5.4z M23.1,24.3h-2.4V7.7h2.4V24.3z"/>
	</g>
</g>
</svg>

<?xml version="1.0" encoding="UTF-8" standalone="no"?>
<!DOCTYPE svg PUBLIC "-//W3C//DTD SVG 1.1//EN" "http://www.w3.org/Graphics/SVG/1.1/DTD/svg11.dtd">
<svg width="100%" height="100%" viewBox="0 0 32 32" version="1.1" xmlns="http://www.w3.org/2000/svg" xmlns:xlink="http://www.w3.org/1999/xlink" xml:space="preserve" xmlns:serif="http://www.serif.com/" style="fill-rule:evenodd;clip-rule:evenodd;stroke-linejoin:round;stroke-miterlimit:1.41421;">
    <path id="Rectangle_2_copy" d="M11.3,5.4L8.9,5.4C7.6,5.4 6.5,6.5 6.5,7.8L6.5,24.3C6.5,25.6 7.6,26.7 8.9,26.7L11.3,26.7C12.6,26.7 13.7,25.6 13.7,24.3L13.7,7.7C13.6,6.4 12.6,5.4 11.3,5.4ZM11.3,24.3L8.9,24.3L8.9,7.7L11.3,7.7L11.3,24.3Z" style="fill:white;fill-rule:nonzero;stroke:black;stroke-opacity:0.541176;stroke-width:0.5px;"/>
    <path id="Rectangle_2_copy_2" d="M23.1,5.4L20.7,5.4C19.4,5.4 18.3,6.5 18.3,7.8L18.3,24.3C18.3,25.6 19.4,26.7 20.7,26.7L23.1,26.7C24.4,26.7 25.5,25.6 25.5,24.3L25.5,7.7C25.4,6.4 24.4,5.4 23.1,5.4ZM23.1,24.3L20.7,24.3L20.7,7.7L23.1,7.7L23.1,24.3Z" style="fill:white;fill-rule:nonzero;stroke:black;stroke-opacity:0.541176;stroke-width:0.5px;"/>
</svg>
